X:1
T:[ID 5-18b]
T:[ID 5-18b]
T:Bezeichnung standardisiert: Boure Boure
T:Urheber unbekannt Datum in der hier transkribierten schriftlichen Quelle: 1773
C:Urheber unbekannt
C:Datum in der hier transkribierten schriftlichen Quelle: 1773
L:1/8
M:4/4
K:D
V:1 treble 
V:1
 a4 f2 a2 | d6 d2 | e2 f2 g2 a2 | f2 ef d2 f2 | e4 c2 e2 | d4 B2 d2 | c2 BA cBA^G | A6 :: %8
 e4 c2 e2 | A6 A2 | A2 g2 g2 f2 | e6 a2 | f4 g2 b2 | e4 f2 a2 | f2 ed fedc | d6 :| %16

